X:27
T:Rub the Bag
Z: id:dc-setdance-28
M:6/8
L:1/8
K:D Major
ded fed|cBA cec|BcB fdB|BcB fdB|!
ded fed|cBA cec|ABA ecA|ABA ecA:|!
ded def|efe efg|fgf f2^g|aba a2g|fgf fga|gfe efe|]!

